icons/archive.svg

<svg width="24" height="24" viewBox="0 0 24 24" fill="none" xmlns="http://www.w3.org/2000/svg">
<path fill-rule="evenodd" clip-rule="evenodd" d="M5 8.20007C5.41421 8.20007 5.75 8.53586 5.75 8.95007V16.9501C5.75 18.2359 6.71421 19.2001 8 19.2001H16C17.2858 19.2001 18.25 18.2359 18.25 16.9501V8.95007C18.25 8.53586 18.5858 8.20007 19 8.20007C19.4142 8.20007 19.75 8.53586 19.75 8.95007V16.9501C19.75 19.0643 18.1142 20.7001 16 20.7001H8C5.88579 20.7001 4.25 19.0643 4.25 16.9501V8.95007C4.25 8.53586 4.58579 8.20007 5 8.20007Z" fill="black"/>
<path fill-rule="evenodd" clip-rule="evenodd" d="M5.5 4.80005C4.51421 4.80005 3.75 5.56426 3.75 6.55005C3.75 7.53584 4.51421 8.30005 5.5 8.30005H18.5C18.9199 8.30005 19.3616 8.1028 19.7072 7.75722C20.0528 7.41164 20.25 6.96991 20.25 6.55005C20.25 5.56426 19.4858 4.80005 18.5 4.80005H5.5ZM2.25 6.55005C2.25 4.73584 3.68579 3.30005 5.5 3.30005H18.5C20.3142 3.30005 21.75 4.73584 21.75 6.55005C21.75 7.43019 21.3472 8.23846 20.7678 8.81788C20.1884 9.3973 19.3801 9.80005 18.5 9.80005H5.5C3.68579 9.80005 2.25 8.36426 2.25 6.55005Z" fill="black"/>
</svg>

<svg xmlns="http://www.w3.org/2000/svg" fill="none" viewBox="0 0 24 24">
  <path fill="#000" fill-rule="evenodd" d="M5 8.2a.75.75 0 0 1 .75.75v8c0 1.286.964 2.25 2.25 2.25h8c1.286 0 2.25-.964 2.25-2.25v-8a.75.75 0 0 1 1.5 0v8c0 2.114-1.636 3.75-3.75 3.75H8c-2.114 0-3.75-1.636-3.75-3.75v-8A.75.75 0 0 1 5 8.2Z" clip-rule="evenodd"/>
  <path fill="#000" fill-rule="evenodd" d="M5.5 4.8c-.986 0-1.75.764-1.75 1.75S4.514 8.3 5.5 8.3h13c.42 0 .862-.197 1.207-.543.346-.345.543-.787.543-1.207 0-.986-.764-1.75-1.75-1.75h-13ZM2.25 6.55A3.226 3.226 0 0 1 5.5 3.3h13a3.226 3.226 0 0 1 3.25 3.25c0 .88-.403 1.688-.982 2.268-.58.58-1.388.982-2.268.982h-13a3.226 3.226 0 0 1-3.25-3.25Z" clip-rule="evenodd"/>
</svg>
